X:1
T:Title
%%score ( 1 2 ) { ( 3 5 ) | 4 }
L:1/8
Q:1/4=95
M:4/4
K:G
V:1 treble nm="Grand Piano, Soprano"
V:2 treble 
V:3 treble nm="Choir Pad, The Beautiful HIlls of Rest"
V:5 treble 
V:4 bass 
V:1
 [GB]4 [DG]2 [GB]>[GB] | (3[EA][EA][EA] [EG]>[CE] [EG]2 [DF]>[CE] | %2
w: By~William~James~Kirkpatrick * * *||
 [B,D]2 [DG]>[DG] [GB]2 [EA]>[EG] | F2- [Fd]2 [G^c]2 [A=c]2 | %4
w: ||
 [GB]>[GB] [Gd]>[Gd] [GB]2 [DG]>[=FB] | (3[EA][EA][EA] [EG]>[CE] [EG]2 [DF]>[CE] | %6
w: ||
 (3[B,D][B,D][B,D] (3[Gd][Gd][Gd] [FB]2 [FA]2 | [DG]6 [GB]>[Gc] | %8
w: ||
 (3[Gd][Bd][Dd] (3[Gd][Bd][Dd] [Ge]2 [DB]2 | [Gd]6 [Ac]>[GB] | %10
w: ||
 [FA]2 [FA]>[FA] [FA]>[FA] [EG]>[FA] | [GB]6 [GB]>[Gc] | (3[Gd][Gd][Gd] [Ge]>[DB] [Fd]2 [FB]>[FA] | %13
w: |||
 (3[EG][EG][EG] [EA]>[CE] [EG]2 [DF]>[CE] | (3[B,D][B,D][B,D] (3[Gd][Gd][Gd] [FB]2 [FA]2 | %15
w: ||
 (3[DG-][DG-][DG-] G6- | G4 z4 |] %17
w: ||
V:2
 x8 | x8 | x8 | A2 z2 z4 | x8 | x8 | x8 | x8 | x8 | x8 | x8 | x8 | x8 | x8 | x8 | z2 E>^D =D4- | %16
 D4 z4 |] %17
V:3
 D4 B,2 D>D | (3CCC C>[K:bass]G, G,2 G,>G, | G,2 B,>B, B,2 ^C>C | D2 z2 E,2[K:treble] D2 | %4
 D>D B,>B, D2 B,>D | (3CCC C>[K:bass]G, C2 G,>G, | (3G,G,G, (3B,B,B,[K:treble] D2 C2 | B,6 D>C | %8
 B,2 B,2 B,2 G,2 | (3B,B,B, (3:2:2D2 B, B,2[K:treble] D>D | D2 D>D D>D B,>D | D6 D>C | %12
 (3B,B,B, B,>G, A,2 D>C | (3B,B,B, C>G, C2 G,>G, | (3G,G,G, (3B,B,B, D2 C2 | %15
 (3B,B,B, (3:2:2C2 A, B,4- | B,4 z4 |] %17
V:4
 G,4 G,2 G,>G, | (3C,C,C, C,>C, C,2 C,>C, | G,,2 G,>G, E,2 A,,>A,, | D,4 z2 F,2 | %4
 G,>G, G,>G, G,2 G,,>G,, | (3C,C,C, C,>C, C,2 C,>C, | (3D,D,D, (3D,D,D, D,2 D,2 | G,,6 G,>G, | %8
 G,2 G,2 G,2 z2 | (3G,G,G, (3:2:2B,2 D, D,2 F,>F, | D,2 D,>D, D,>D, E,>D, | %11
 G,>G,, B,,>D, G,2 G,>G, | (3G,G,G, G,2 D,2 D,>D, | (3E,E,E, E,>E, C,2 C,>C, | %14
 (3D,D,D, (3D,D,D, D,2 D,2 | G,,8- | G,,4 z4 |] %17
V:5
 x8 | x7/2[K:bass] x9/2 | x8 | z2 A,4[K:treble] z2 | x8 | x7/2[K:bass] x9/2 | x4[K:treble] x4 | %7
 x8 | x8 | x6[K:treble] x2 | x8 | x8 | x8 | x8 | x8 | x8 | x8 |] %17

